public/assets/firefox.svg

<svg width="42" height="43" viewBox="0 0 42 43" fill="none" xmlns="http://www.w3.org/2000/svg">
<path d="M40.4737 14.2498C39.5756 12.0993 37.7538 9.7773 36.3272 9.0433C37.3445 11.0038 38.0506 13.1092 38.4204 15.2848L38.4242 15.3193C36.0872 9.52361 32.1257 7.18307 28.8885 2.09331C28.7248 1.8359 28.561 1.57796 28.4016 1.30569C28.3104 1.15019 28.2373 1.01007 28.1739 0.881104C28.0396 0.622399 27.9362 0.34899 27.8656 0.0664241C27.8657 0.0533851 27.861 0.0407677 27.8523 0.0309788C27.8437 0.02119 27.8317 0.0149149 27.8187 0.0133505C27.8059 0.00987275 27.7925 0.00987275 27.7797 0.0133505C27.7771 0.0133505 27.7728 0.0181271 27.7696 0.0191886C27.7664 0.0202501 27.7595 0.0250267 27.7547 0.0271496L27.7627 0.0133505C22.5708 3.03855 20.8082 8.63781 20.6482 11.4401C20.8893 11.4236 21.1282 11.4035 21.3746 11.4035C23.2166 11.407 25.0248 11.8959 26.6154 12.8204C28.206 13.7448 29.5222 15.0719 30.4303 16.6668C28.9764 15.6646 27.2003 15.2355 25.4465 15.4625C32.8809 19.1618 30.8863 31.8994 20.5832 31.4218C19.6658 31.3843 18.7592 31.2102 17.8937 30.9054C17.6914 30.83 17.4891 30.7476 17.2868 30.6581C17.17 30.605 17.0532 30.5519 16.938 30.4925L16.9524 30.5015C16.8521 30.4537 16.7518 30.404 16.6516 30.3523C16.7481 30.3985 16.8388 30.4484 16.938 30.4925C14.4138 29.1943 12.3296 26.7402 12.0693 23.7627C12.0693 23.7627 13.0234 20.2243 18.9011 20.2243C19.5363 20.2243 21.3544 18.4596 21.3869 17.948C21.3789 17.7808 17.7817 16.3558 16.3791 14.9812C15.6297 14.2461 15.274 13.8921 14.9588 13.6262C14.7885 13.4826 14.6105 13.3483 14.4255 13.2239C13.9546 11.5834 13.9345 9.84713 14.3674 8.19624C12.4607 9.11537 10.7665 10.4184 9.39208 12.0228H9.38248C8.56331 10.9895 8.62091 7.58218 8.66784 6.87046C8.4255 6.96739 8.19417 7.08961 7.97773 7.23508C7.25457 7.74869 6.57853 8.32502 5.95753 8.95732C5.24987 9.67132 4.60354 10.4431 4.02533 11.2644V11.2676V11.2639C2.69659 13.1383 1.75404 15.2559 1.25209 17.4947L1.22436 17.6306C1.18542 17.8116 1.01103 18.7308 0.985965 18.9283C0.82645 19.8771 0.72458 20.8347 0.680908 21.7958V21.902C0.690043 27.0493 2.63796 32.0063 6.14012 35.7942C9.64228 39.5822 14.4442 41.9259 19.5979 42.3628C24.7516 42.7996 29.8827 41.2978 33.9781 38.1538C38.0736 35.0098 40.8358 30.4521 41.7195 25.3804C41.7542 25.115 41.7825 24.8523 41.8134 24.5843C42.2392 21.0825 41.7783 17.5303 40.4726 14.2509L40.4737 14.2498ZM38.4231 15.3065L38.4268 15.3283L38.4231 15.3065Z" fill="url(#paint0_linear_76:233)"/>
<defs>
<linearGradient id="paint0_linear_76:233" x1="37.3218" y1="6.40867" x2="8.26969" y2="35.6073" gradientUnits="userSpaceOnUse">
<stop offset="0.167" stop-color="#FFF44F" stop-opacity="0.8"/>
<stop offset="0.266" stop-color="#FFF44F" stop-opacity="0.634"/>
<stop offset="0.489" stop-color="#FFF44F" stop-opacity="0.217"/>
<stop offset="0.6" stop-color="#FFF44F" stop-opacity="0"/>
</linearGradient>
</defs>
</svg>

<svg width="42" height="43" fill="none" xmlns="http://www.w3.org/2000/svg"><path d="M40.474 14.25c-.898-2.15-2.72-4.473-4.147-5.207a21.3 21.3 0 0 1 2.093 6.242l.004.034c-2.337-5.795-6.298-8.136-9.535-13.226a24.915 24.915 0 0 1-.487-.787 6.451 6.451 0 0 1-.228-.425 3.73 3.73 0 0 1-.308-.815.053.053 0 0 0-.047-.053.074.074 0 0 0-.04 0c-.002 0-.006.005-.01.006l-.014.008.008-.014C22.57 3.04 20.808 8.638 20.648 11.44c.241-.016.48-.037.727-.037a10.47 10.47 0 0 1 5.24 1.417 10.404 10.404 0 0 1 3.815 3.847 7.163 7.163 0 0 0-4.983-1.205c7.434 3.7 5.44 16.437-4.864 15.96a9.232 9.232 0 0 1-2.69-.517 10.966 10.966 0 0 1-.606-.247c-.117-.053-.234-.106-.349-.166l.014.01c-.1-.048-.2-.098-.3-.15.096.046.187.096.286.14-2.524-1.298-4.608-3.752-4.869-6.73 0 0 .954-3.538 6.832-3.538.635 0 2.453-1.764 2.486-2.276-.008-.167-3.605-1.592-5.008-2.967-.75-.735-1.105-1.089-1.42-1.355a6.156 6.156 0 0 0-.534-.402 9.493 9.493 0 0 1-.058-5.028c-1.906.92-3.6 2.222-4.975 3.827h-.01c-.819-1.034-.761-4.44-.714-5.153-.242.097-.474.22-.69.365a15.03 15.03 0 0 0-2.02 1.722 17.985 17.985 0 0 0-1.933 2.307v.004-.004a17.33 17.33 0 0 0-2.773 6.23l-.028.137a34.9 34.9 0 0 0-.238 1.297c-.16.95-.261 1.907-.305 2.868v.106a20.516 20.516 0 0 0 5.46 13.892 20.71 20.71 0 0 0 13.457 6.569 20.742 20.742 0 0 0 14.38-4.21A20.554 20.554 0 0 0 41.72 25.38c.035-.265.063-.528.094-.796a21.06 21.06 0 0 0-1.34-10.333v-.001Zm-2.05 1.056.003.022-.004-.021Z" fill="url(#a)"/><defs><linearGradient id="a" x1="37.322" y1="6.409" x2="8.27" y2="35.607" gradientUnits="userSpaceOnUse"><stop offset=".167" stop-color="#FFF44F" stop-opacity=".8"/><stop offset=".266" stop-color="#FFF44F" stop-opacity=".634"/><stop offset=".489" stop-color="#FFF44F" stop-opacity=".217"/><stop offset=".6" stop-color="#FFF44F" stop-opacity="0"/></linearGradient></defs></svg>
